cs_client/src/assets/icons/cherrytree/cancel.svg

<?xml version="1.0" encoding="UTF-8" standalone="no"?>
<!-- Created with Inkscape (http://www.inkscape.org/) -->
<svg
   xmlns:dc="http://purl.org/dc/elements/1.1/"
   xmlns:cc="http://creativecommons.org/ns#"
   xmlns:rdf="http://www.w3.org/1999/02/22-rdf-syntax-ns#"
   xmlns:svg="http://www.w3.org/2000/svg"
   xmlns="http://www.w3.org/2000/svg"
   xmlns:xlink="http://www.w3.org/1999/xlink"
   xmlns:sodipodi="http://sodipodi.sourceforge.net/DTD/sodipodi-0.dtd"
   xmlns:inkscape="http://www.inkscape.org/namespaces/inkscape"
   width="48px"
   height="48px"
   id="svg7216"
   sodipodi:version="0.32"
   inkscape:version="0.46"
   sodipodi:docname="drawing.svg"
   inkscape:output_extension="org.inkscape.output.svg.inkscape">
  <defs
     id="defs7218">
    <linearGradient
       id="linearGradient7916">
      <stop
         style="stop-color:#ffffff;stop-opacity:1;"
         offset="0"
         id="stop7918" />
      <stop
         style="stop-color:#ffffff;stop-opacity:0"
         offset="1.0000000"
         id="stop7920" />
    </linearGradient>
    <linearGradient
       inkscape:collect="always"
       xlink:href="#linearGradient7916"
       id="linearGradient2181"
       gradientUnits="userSpaceOnUse"
       gradientTransform="matrix(1.0494758,-1.0494758,1.0494758,1.0494758,-26.939092,23.169297)"
       x1="31.972097"
       y1="17.041941"
       x2="12.717501"
       y2="36.296539" />
    <linearGradient
       inkscape:collect="always"
       id="linearGradient7955">
      <stop
         style="stop-color:#c22f2f;stop-opacity:1"
         offset="0"
         id="stop7957" />
      <stop
         style="stop-color:#a40000;stop-opacity:1"
         offset="1"
         id="stop7959" />
    </linearGradient>
    <linearGradient
       inkscape:collect="always"
       xlink:href="#linearGradient7955"
       id="linearGradient7961"
       x1="23.172504"
       y1="6.0004601"
       x2="23.099995"
       y2="43.000458"
       gradientUnits="userSpaceOnUse" />
    <linearGradient
       id="linearGradient3165">
      <stop
         style="stop-color:#e78181;stop-opacity:1"
         offset="0"
         id="stop3167" />
      <stop
         id="stop8599"
         offset="0.25"
         style="stop-color:#e15f5f;stop-opacity:1" />
      <stop
         style="stop-color:#c22f2f;stop-opacity:1"
         offset="0.68000001"
         id="stop8601" />
      <stop
         style="stop-color:#a40000;stop-opacity:1"
         offset="1"
         id="stop3169" />
    </linearGradient>
    <radialGradient
       inkscape:collect="always"
       xlink:href="#linearGradient3165"
       id="radialGradient7958"
       cx="6.5734448"
       cy="24.500458"
       fx="6.5734448"
       fy="24.500458"
       r="18.500046"
       gradientTransform="matrix(-2.1314195e-8,2.5479117,-4.8841578,-2.2328085e-8,144.16406,-10.748097)"
       gradientUnits="userSpaceOnUse" />
    <linearGradient
       id="linearGradient2091">
      <stop
         style="stop-color:#000000;stop-opacity:1;"
         offset="0"
         id="stop2093" />
      <stop
         style="stop-color:#000000;stop-opacity:0;"
         offset="1"
         id="stop2095" />
    </linearGradient>
    <radialGradient
       inkscape:collect="always"
       xlink:href="#linearGradient2091"
       id="radialGradient2177"
       gradientUnits="userSpaceOnUse"
       gradientTransform="matrix(0.914812,1.265023e-2,-8.21502e-3,0.213562,2.253914,27.18889)"
       cx="23.070683"
       cy="35.127438"
       fx="23.070683"
       fy="35.127438"
       r="10.31934" />
  </defs>
  <sodipodi:namedview
     id="base"
     pagecolor="#ffffff"
     bordercolor="#666666"
     borderopacity="1.0"
     inkscape:pageopacity="0.0"
     inkscape:pageshadow="2"
     inkscape:zoom="7"
     inkscape:cx="24"
     inkscape:cy="24"
     inkscape:current-layer="layer1"
     showgrid="true"
     inkscape:grid-bbox="true"
     inkscape:document-units="px"
     inkscape:window-width="641"
     inkscape:window-height="690"
     inkscape:window-x="0"
     inkscape:window-y="25" />
  <metadata
     id="metadata7221">
    <rdf:RDF>
      <cc:Work
         rdf:about="">
        <dc:format>image/svg+xml</dc:format>
        <dc:type
           rdf:resource="http://purl.org/dc/dcmitype/StillImage" />
      </cc:Work>
    </rdf:RDF>
  </metadata>
  <g
     id="layer1"
     inkscape:label="Layer 1"
     inkscape:groupmode="layer">
    <path
       sodipodi:type="arc"
       style="opacity:0.2557078;fill:url(#radialGradient2177);fill-opacity:1;stroke:none;stroke-width:3;stroke-linecap:round;stroke-linejoin:round;stroke-miterlimit:4;stroke-dasharray:none;stroke-dashoffset:0;stroke-opacity:1"
       id="path1361"
       sodipodi:cx="22.958872"
       sodipodi:cy="34.94062"
       sodipodi:rx="10.31934"
       sodipodi:ry="2.320194"
       d="M 33.278212,34.94062 A 10.31934,2.320194 0 1 1 12.639532,34.94062 A 10.31934,2.320194 0 1 1 33.278212,34.94062 z"
       transform="matrix(2.2288248,0,0,1.9190478,-27.171303,-25.505284)" />
    <path
       style="font-size:59.90107727px;font-style:normal;font-variant:normal;font-weight:bold;font-stretch:normal;text-align:start;line-height:125%;writing-mode:lr-tb;text-anchor:start;fill:url(#radialGradient7958);fill-opacity:1;stroke:url(#linearGradient7961);stroke-width:1;stroke-linecap:butt;stroke-linejoin:round;stroke-miterlimit:4;stroke-dasharray:none;stroke-opacity:1;font-family:Bitstream Vera Sans"
       d="M 42.5,35.000459 L 31.99991,24.000459 L 42.499911,14.000459 L 34.99991,6.5004602 L 24.499911,17.000459 L 13.999912,6.5004602 L 6.4999133,14.000459 L 16.999911,24.000459 L 6.4999133,35.000459 L 13.999912,42.500458 L 24.499911,32.000458 L 33.999911,42.500458 L 42.5,35.000459 z"
       id="text1314"
       sodipodi:nodetypes="ccccccccccccc" />
    <path
       style="font-size:59.90107727px;font-style:normal;font-variant:normal;font-weight:bold;font-stretch:normal;text-align:start;line-height:125%;writing-mode:lr-tb;text-anchor:start;opacity:0.4;fill:none;fill-opacity:1;stroke:url(#linearGradient2181);stroke-width:1;stroke-linecap:butt;stroke-linejoin:round;stroke-miterlimit:4;stroke-dasharray:none;stroke-opacity:1;font-family:Bitstream Vera Sans"
       d="M 41,35.000459 L 30.49991,24.000459 L 40.99991,14.000459 L 34.99991,8.0004592 L 24.50022,18.500459 L 13.999912,8.0004592 L 7.9999123,14.000459 L 18.499911,24.000459 L 7.9999123,35.000459 L 13.999912,41.000459 L 24.499911,30.500459 L 34,41 L 41,35.000459 z"
       id="path7076"
       sodipodi:nodetypes="ccccccccccccc" />
  </g>
</svg>

<svg xmlns="http://www.w3.org/2000/svg" xmlns:xlink="http://www.w3.org/1999/xlink" width="48" height="48"><defs><linearGradient id="a"><stop offset="0" stop-color="#fff"/><stop offset="1" stop-color="#fff" stop-opacity="0"/></linearGradient><linearGradient xlink:href="#a" id="h" gradientUnits="userSpaceOnUse" gradientTransform="scale(1.48418) rotate(-45 9.769 29.715)" x1="31.972" y1="17.042" x2="12.718" y2="36.297"/><linearGradient id="b"><stop offset="0" stop-color="#c22f2f"/><stop offset="1" stop-color="#a40000"/></linearGradient><linearGradient xlink:href="#b" id="g" x1="23.173" y1="6" x2="23.1" y2="43" gradientUnits="userSpaceOnUse"/><linearGradient id="c"><stop offset="0" stop-color="#e78181"/><stop offset=".25" stop-color="#e15f5f"/><stop offset=".68" stop-color="#c22f2f"/><stop offset="1" stop-color="#a40000"/></linearGradient><linearGradient id="d"><stop offset="0"/><stop offset="1" stop-opacity="0"/></linearGradient><radialGradient xlink:href="#c" id="f" cx="6.573" cy="24.5" fx="6.573" fy="24.5" r="18.5" gradientTransform="matrix(0 2.54791 -4.88416 0 144.164 -10.748)" gradientUnits="userSpaceOnUse"/><radialGradient xlink:href="#d" id="e" gradientUnits="userSpaceOnUse" gradientTransform="matrix(.91481 .01265 -.00822 .21356 2.254 27.189)" cx="23.071" cy="35.127" fx="23.071" fy="35.127" r="10.319"/></defs><path d="M33.278 34.94a10.32 2.32 0 11-20.638 0 10.32 2.32 0 1120.638 0z" transform="matrix(2.22882 0 0 1.91905 -27.171 -25.505)" opacity=".256" fill="url(#e)"/><path style="text-align:start;line-height:125%" d="M42.5 35L32 24l10.5-10L35 6.5 24.5 17 14 6.5 6.5 14 17 24 6.5 35l7.5 7.5L24.5 32 34 42.5l8.5-7.5z" font-size="59.901" font-weight="700" fill="url(#f)" stroke="url(#g)" stroke-linejoin="round" font-family="Bitstream Vera Sans"/><path style="text-align:start;line-height:125%" d="M41 35L30.5 24 41 14l-6-6-10.5 10.5L14 8l-6 6 10.5 10L8 35l6 6 10.5-10.5L34 41l7-6z" font-size="59.901" font-weight="700" opacity=".4" fill="none" stroke="url(#h)" stroke-linejoin="round" font-family="Bitstream Vera Sans"/></svg>
